X: 31
T:Cuckoo, The
M:3/4
L:1/8
S:Miss Lucy Ray
R:Air
K:A
"Moderato"C2|F2 F2 EC|FF F2 G2|B2 B2 GF|E4 C2|
F2 F2 EC|F2 F2 EC|F2 A2 B2|c4||
cB|A2 A2 ec|B2 B2 cB|A2 A2 GF|E4 C2|F2 F2 EC|F2 F2 c2|cB A2 G2|F2-F2||

